X: 291
T:Vultum tuum deprecabuntur / Sancta dei genitrix / O intemerata virgo / O Maria / Mente tota tibi supplicamus / Ora pro nobis / Christi, fili dei
N: Derived from Jos2514-Vultum_tuum_deprecabuntur.krn
C: Josquin des Prez
%%abc-version 2.0
%%abcx-abcm2ps-target-version 5.9.1 (29 Sep 2008)
%%abc-creator hum2abc beta
%%abcx-conversion-date 2019/02/12 16:15:53
%%abc-edited-by Jesse Rodin
%%abc-edited-by Will Watson 11/07/2011
%%abcx-initial-encoding-date 2011/07/11/
%%humdrum-veritas 3031959977
%%humdrum-veritas-data 2077364234
%%linebreak <none>
%%barnumbers 0
L: 1/4
M: 2/1
Q: 1/2=120
%%staves [1 2 3 4]
V: 1 clef=treble
V: 2 clef=treble-8
V: 3 clef=treble-8
V: 4 clef=bass
K: F
[V:1] G8- | 
[V:2] d8- | 
[V:3] G8 | 
[V:4] G,8- | 
[V:1] G8 | 
[V:2] d8- | 
[V:3] B8 | 
[V:4] G,8 | 
[V:1] F8 | 
[V:2] d8 | 
[V:3] A4d4- | 
[V:4] D,8 | 
[V:1] G8 | 
[V:2] G6A2 | 
[V:3] d4c4 | 
[V:4] _E,6D,2 | 
[V:1] F4D4- | 
[V:2] B6c2 | 
[V:3] d4f4- | 
[V:4] B,,8 | 
[V:1] D2E2F4 | 
[V:2] d4d4- | 
[V:3] f2e2d2c2 | 
[V:4] B,6A,2 | 
[V:1] G4A4- | 
[V:2] d2e2f4 | 
[V:3] B4c4- | 
[V:4] G,4F,4 | 
[V:1] A2G2G4- | 
[V:2] g4c4 | 
[V:3] c2B2G4 | 
[V:4] _E,8 | 
[V:1] G4^F4 | 
[V:2] d8 | 
[V:3] A8 | 
[V:4] D,8 | 
[V:1] G8- | 
[V:2] B8 | 
[V:3] G8- | 
[V:4] z4D4- | 
[V:1] G8 | 
[V:2] G4d4- | 
[V:3] G8 | 
[V:4] D2C2B,4- | 
[V:1] z8 | 
[V:2] d2c2B4 | 
[V:3] B8 | 
[V:4] B,2A,2G,4 | 
[V:1] z8 | 
[V:2] A4B4 | 
[V:3] c4d4- | 
[V:4] F,4B,,4 | 
[V:1] z8 | 
[V:2] G8 | 
[V:3] d4B4 | 
[V:4] B,8 | 
[V:1] z8 | 
[V:2] F4B4- | 
[V:3] c4_e4- | 
[V:4] A,4G,4- | 
[V:1] z8 | 
[V:2] B4A4 | 
[V:3] e2d2d4- | 
[V:4] G,2F,2D,4 | 
[V:1] z8 | 
[V:2] B4G4 | 
[V:3] d4B4 | 
[V:4] G,8 | 
[V:1] z8 | 
[V:2] A4B4 | 
[V:3] c4d4- | 
[V:4] F,4B,,4 | 
[V:1] z8 | 
[V:2] G4d4 | 
[V:3] d4B4 | 
[V:4] B,8 | 
[V:1] z8 | 
[V:2] c4B4- | 
[V:3] c4_e4- | 
[V:4] A,4G,4- | 
[V:1] z8 | 
[V:2] B2A2A4- | 
[V:3] e2d2d4- | 
[V:4] G,2F,2D,4 | 
[V:1] z8 | 
[V:2] A4G4 | 
[V:3] d4c4 | 
[V:4] _E,8 | 
[V:1] z4A4- | 
[V:2] A4F4 | 
[V:3] d8- | 
[V:4] D,8- | 
[V:1] A4F4 | 
[V:2] f6ed | 
[V:3] d8 | 
[V:4] D,8 | 
[V:1] G4B4- | 
[V:2] e4d4 | 
[V:3] z8 | 
[V:4] z8 | 
[V:1] B4G4 | 
[V:2] g6fe | 
[V:3] z8 | 
[V:4] z8 | 
[V:1] A4B4 | 
[V:2] f4g4- | 
[V:3] z8 | 
[V:4] z8 | 
[V:1] G8 | 
[V:2] g4c4 | 
[V:3] _e8 | 
[V:4] C,8 | 
[V:1] z4B4- | 
[V:2] B4G4 | 
[V:3] d8 | 
[V:4] G,8- | 
[V:1] B4G4 | 
[V:2] d6e2 | 
[V:3] d4B4 | 
[V:4] G,8 | 
[V:1] A4B4 | 
[V:2] f4d4 | 
[V:3] c4d4 | 
[V:4] F,4B,,4 | 
[V:1] G8 | 
[V:2] c8 | 
[V:3] _e8 | 
[V:4] C,8 | 
[V:1] z4B4- | 
[V:2] B6A2 | 
[V:3] d8 | 
[V:4] G,8 | 
[V:1] B2A2G4 | 
[V:2] G3Fc4 | 
[V:3] _e8 | 
[V:4] z4C,4 | 
[V:1] F4A4 | 
[V:2] A8 | 
[V:3] d8 | 
[V:4] D,4F,4 | 
[V:1] G4B4 | 
[V:2] B8 | 
[V:3] _e4d4 | 
[V:4] _E,4G,4 | 
[V:1] A4c4 | 
[V:2] c8 | 
[V:3] f6_e2 | 
[V:4] F,8 | 
[V:1] B4A4- | 
[V:2] f8 | 
[V:3] d4c4 | 
[V:4] z4F,4 | 
[V:1] A2G2G4- | 
[V:2] d4_e4 | 
[V:3] B4c4 | 
[V:4] G,4C,4 | 
[V:1] G4^F4 | 
[V:2] d8 | 
[V:3] A8 | 
[V:4] D,8 | 
[V:1] G8- | 
[V:2] B4G4 | 
[V:3] G8- | 
[V:4] z4D4- | 
[V:1] G8 | 
[V:2] d6c2 | 
[V:3] G8 | 
[V:4] D2C2B,2A,2 | 
[V:1] z8 | 
[V:2] B2A2G2F2 | 
[V:3] z8 | 
[V:4] G,2F,2B,2C2 | 
[V:1] z8 | 
[V:2] Bcdefga2- | 
[V:3] z8 | 
[V:4] D6C2 | 
[V:1] z8 | 
[V:2] agg4^f2 | 
[V:3] z8 | 
[V:4] B,2G,2A,4 | 
[V:1] z8 | 
[V:2] g8 | 
[V:3] z8 | 
[V:4] G,8 | 
[V:1] [M:3/1]B4B4B4 | 
[V:2] [M:3/1]d4d4d4 | 
[V:3] [M:3/1]g4g4g4 | 
[V:4] [M:3/1]G,4G,4G,4 | 
[V:1] c8A4 | 
[V:2] c8c4 | 
[V:3] f8f4 | 
[V:4] A,8A,4 | 
[V:1] B8d4- | 
[V:2] d8d4- | 
[V:3] g8f4- | 
[V:4] G,8D,4- | 
[V:1] d4c8 | 
[V:2] d4A8 | 
[V:3] f4e8 | 
[V:4] D,4A,8 | 
[V:1] B8A4- | 
[V:2] f8f4- | 
[V:3] d8c4- | 
[V:4] B,8F,4- | 
[V:1] A4G8 | 
[V:2] f4e8 | 
[V:3] c4B8 | 
[V:4] F,4G,8 | 
[V:1] F12 | 
[V:2] d12 | 
[V:3] A8z4 | 
[V:4] D,12 | 
[V:1] z12 | 
[V:2] z12 | 
[V:3] A6B2c4 | 
[V:4] F,6D,2E,4 | 
[V:1] A6B2c4 | 
[V:2] z12 | 
[V:3] d8c4 | 
[V:4] D,8z4 | 
[V:1] d8c4 | 
[V:2] d6e2f4 | 
[V:3] B4G4A4 | 
[V:4] z12 | 
[V:1] B4G4A4 | 
[V:2] g8f4 | 
[V:3] G8z4 | 
[V:4] z12 | 
[V:1] G6A2B4 | 
[V:2] e4c4d4 | 
[V:3] c8B4 | 
[V:4] z12 | 
[V:1] c8B4 | 
[V:2] c6d2e4 | 
[V:3] A4F4G4 | 
[V:4] z12 | 
[V:1] A4F4G4 | 
[V:2] f4d4G4 | 
[V:3] F4B6c2 | 
[V:4] D,8E,4 | 
[V:1] F4A8 | 
[V:2] A4f6e2 | 
[V:3] d6c2A4 | 
[V:4] D,6E,2F,4 | 
[V:1] G4B8 | 
[V:2] d6B2d3e | 
[V:3] B4G8 | 
[V:4] G,8G,4 | 
[V:1] A4c6B2 | 
[V:2] f8F4 | 
[V:3] c6B2A3G | 
[V:4] F,6G,2A,4 | 
[V:1] A2G2B6A2 | 
[V:2] f4d4_e4- | 
[V:3] d8B4 | 
[V:4] D,4G,8 | 
[V:1] G8^F4 | 
[V:2] e4d8 | 
[V:3] c4A8 | 
[V:4] C,4D,8 | 
[V:1] G12 ||  
[V:2] d12 ||  
[V:3] G12 ||  
[V:4] G,12 ||  
[V:1] [M:2/1]B6B2 | 
[V:2] [M:2/1]g6g2 | 
[V:3] [M:2/1]z8 | 
[V:4] [M:2/1]z8 | 
[V:1] B4A4 | 
[V:2] g4a4 | 
[V:3] z8 | 
[V:4] z8 | 
[V:1] c6c2 | 
[V:2] f4e4 | 
[V:3] z8 | 
[V:4] z8 | 
[V:1] d8 | 
[V:2] d4G2d2- | 
[V:3] B6B2 | 
[V:4] G,6G,2 | 
[V:1] z8 | 
[V:2] d2cBc2A2- | 
[V:3] B4A4 | 
[V:4] G,4A,4 | 
[V:1] z8 | 
[V:2] A2GFG4 | 
[V:3] c6c2 | 
[V:4] F,4E,4 | 
[V:1] z4d4 | 
[V:2] A2B2F2f2- | 
[V:3] d8 | 
[V:4] D,8 | 
[V:1] d4c4 | 
[V:2] f2d2e2f2 | 
[V:3] z8 | 
[V:4] z8 | 
[V:1] B4c4 | 
[V:2] g2b2agfe | 
[V:3] z8 | 
[V:4] z8 | 
[V:1] B2G2A4 | 
[V:2] d2g4^f2 | 
[V:3] z8 | 
[V:4] z8 | 
[V:1] G3ABcd2- | 
[V:2] g8 | 
[V:3] z4d4 | 
[V:4] z4G,4 | 
[V:1] dcdBcBcA | 
[V:2] z2d2e2f2 | 
[V:3] d4c4 | 
[V:4] B,4A,4 | 
[V:1] BABGAGFE | 
[V:2] g4z2A2 | 
[V:3] B4c4 | 
[V:4] G,4F,4 | 
[V:1] D2G4^F2 | 
[V:2] B2c2d4 | 
[V:3] B2G2A4 | 
[V:4] G,2E,2D,4 | 
[V:1] G8- | 
[V:2] B8 | 
[V:3] G8- | 
[V:4] G,8 | 
[V:1] G8 | 
[V:2] z4d4 | 
[V:3] G8 | 
[V:4] z4G,4 | 
[V:1] z8 | 
[V:2] f6e2 | 
[V:3] z8 | 
[V:4] D6C2 | 
[V:1] z8 | 
[V:2] d4c4 | 
[V:3] z8 | 
[V:4] B,4A,4 | 
[V:1] z4d4 | 
[V:2] B6c2 | 
[V:3] z4d4 | 
[V:4] B,8 | 
[V:1] d6c2 | 
[V:2] d4B4 | 
[V:3] f6e2 | 
[V:4] B,,8 | 
[V:1] B4A4 | 
[V:2] f6e2 | 
[V:3] d4c4 | 
[V:4] z4F,4 | 
[V:1] B4c4 | 
[V:2] d2B2f4- | 
[V:3] B6A2 | 
[V:4] G,4F,4 | 
[V:1] d4G4 | 
[V:2] f2d2e4 | 
[V:3] B4c4 | 
[V:4] B,,2D,2C,4 | 
[V:1] B6A2 | 
[V:2] f2B3cd2 | 
[V:3] d4G4 | 
[V:4] B,,4B,4- | 
[V:1] G4F2G2- | 
[V:2] G2d2c2d2 | 
[V:3] B4A2B2 | 
[V:4] B,2A,G,A,2G,2 | 
[V:1] GFF4E2 | 
[V:2] _e2c6 | 
[V:3] c2A2G4 | 
[V:4] _E,2F,2C,4 | 
[V:1] F8 | 
[V:2] A4d4 | 
[V:3] F8 | 
[V:4] D,8 | 
[V:1] z4G4- | 
[V:2] z4G4- | 
[V:3] z4B4- | 
[V:4] z4_E,4- | 
[V:1] G2G2G2G2 | 
[V:2] G2G2G2G2 | 
[V:3] B2B2B2B2 | 
[V:4] E,2_E,2E,2E,2 | 
[V:1] G4F2E2- | 
[V:2] _e3dc3B | 
[V:3] B4A2G2- | 
[V:4] _E,4F,2C,2 | 
[V:1] EDD4^C2 | 
[V:2] A2G2A4 | 
[V:3] GFD2E4 | 
[V:4] D,2B,,2A,,4 | 
[V:1] D8- | 
[V:2] F3GA2B2 | 
[V:3] D8- | 
[V:4] z2D,2F,3G, | 
[V:1] D8- | 
[V:2] A2d3efg | 
[V:3] D8- | 
[V:4] A,2B,2A,2D2- | 
[V:1] D8 | 
[V:2] a2g4^f2 | 
[V:3] D8 | 
[V:4] D2B,2A,4 | 
[V:1] z8 | 
[V:2] (3:2:2g8z4 | 
[V:3] z8 | 
[V:4] (3G,4G,4F,4 | 
[V:1] z8 | 
[V:2] (3g4g4f4 | 
[V:3] z8 | 
[V:4] (3G,4B,4A,4 | 
[V:1] z8 | 
[V:2] (3g4b4a4 | 
[V:3] z8 | 
[V:4] (3:2:2G,8F,4 | 
[V:1] z8 | 
[V:2] (3:2:2g8f4 | 
[V:3] (3d4d4c4 | 
[V:4] (3G,4B,4A,4 | 
[V:1] (3d4d4c4 | 
[V:2] (3:2:2g4a8 | 
[V:3] (3d4f4e4 | 
[V:4] (3G,4D,4A,4 | 
[V:1] (3d4f4e4 | 
[V:2] (3:2:2f8z4 | 
[V:3] (3:2:2d8c4 | 
[V:4] (3:2:2D,8z4 | 
[V:1] (3:2:2d8c4 | 
[V:2] z8 | 
[V:3] (3d4f4e4 | 
[V:4] z8 | 
[V:1] (3d4f4e4 | 
[V:2] z8 | 
[V:3] (3:2:2d8c4 | 
[V:4] z8 | 
[V:1] (3:2:4d6c2B2A2 | 
[V:2] z8 | 
[V:3] (3f6e2d4 | 
[V:4] z8 | 
[V:1] (3:2:2A8G4 | 
[V:2] z8 | 
[V:3] (3:2:2c4B8 | 
[V:4] z8 | 
[V:1] A8 | 
[V:2] z8 | 
[V:3] A8 | 
[V:4] z8 | 
[V:1] z4B4- | 
[V:2] z4f4- | 
[V:3] z4d4- | 
[V:4] z4B,,4- | 
[V:1] B2B2B2B2 | 
[V:2] f2f2f2f2 | 
[V:3] d2d2d2d2 | 
[V:4] B,,2B,,2B,,2B,,2 | 
[V:1] c2A4B2 | 
[V:2] f4f4 | 
[V:3] c4d4 | 
[V:4] F,3E,D,4 | 
[V:1] cBAGB2A2- | 
[V:2] g2c2f3e | 
[V:3] _e4d2c2- | 
[V:4] C,4B,,2F,2- | 
[V:1] AGG4F2 | 
[V:2] f2d3cd2 | 
[V:3] c2B2A4 | 
[V:4] F,2G,2D,4 | 
[V:1] G2A4B2 | 
[V:2] B2f3ef2 | 
[V:3] G2d2c2d2 | 
[V:4] _E,2D,2F,3E, | 
[V:1] cBAGB2A2- | 
[V:2] g2c2f3e | 
[V:3] _e4d2c2- | 
[V:4] C,4B,,2F,2- | 
[V:1] A2G4^F2 | 
[V:2] f2d3cd2 | 
[V:3] cBAGA4 | 
[V:4] F,2G,2D,4 | 
[V:1] G8- | 
[V:2] B2_e4d2 | 
[V:3] G8- | 
[V:4] G,8- | 
[V:1] G8 ||  
[V:2] d8 ||  
[V:3] G8 ||  
[V:4] G,8 ||  
[V:1] [M:2/1]z8 | 
[V:2] [M:2/1]g6g2 | 
[V:3] [M:2/1]z8 | 
[V:4] [M:2/1]z8 | 
[V:1] d6d2 | 
[V:2] g4f4 | 
[V:3] z8 | 
[V:4] z8 | 
[V:1] d4c4 | 
[V:2] g4e4 | 
[V:3] z8 | 
[V:4] z8 | 
[V:1] d4B4 | 
[V:2] d4d3e | 
[V:3] z8 | 
[V:4] z8 | 
[V:1] A3Bcdc2- | 
[V:2] fgf4ed | 
[V:3] z8 | 
[V:4] z8 | 
[V:1] cBAGA4 | 
[V:2] c2g4^f2 | 
[V:3] z8 | 
[V:4] z8 | 
[V:1] G8 | 
[V:2] g4G4 | 
[V:3] z8 | 
[V:4] G,6G,2 | 
[V:1] z8 | 
[V:2] B4A4 | 
[V:3] d6d2 | 
[V:4] G,4F,4 | 
[V:1] z8 | 
[V:2] B4G4 | 
[V:3] d4c4 | 
[V:4] G,4E,4 | 
[V:1] z8 | 
[V:2] A4z4 | 
[V:3] d4B4 | 
[V:4] D,4D,3E, | 
[V:1] z8 | 
[V:2] z8 | 
[V:3] A3Bcdc2- | 
[V:4] F,G,F,4E,D, | 
[V:1] z8 | 
[V:2] z8 | 
[V:3] cBAGA4 | 
[V:4] C,2G,4^F,2 | 
[V:1] z4G4 | 
[V:2] d4e4 | 
[V:3] G8 | 
[V:4] G,8 | 
[V:1] A4B4 | 
[V:2] f4g4 | 
[V:3] z8 | 
[V:4] z4G,4 | 
[V:1] c4A2B2- | 
[V:2] e2f3edc | 
[V:3] z8 | 
[V:4] A,4F,2G,2- | 
[V:1] BAGFG4 | 
[V:2] B2d4^c2 | 
[V:3] z4G4 | 
[V:4] G,F,D,2E,4 | 
[V:1] F8 | 
[V:2] d4d4 | 
[V:3] A4B4 | 
[V:4] D,8 | 
[V:1] z8 | 
[V:2] e4f2g2- | 
[V:3] c4A2B2- | 
[V:4] z8 | 
[V:1] z4G4 | 
[V:2] g2f4e2 | 
[V:3] BAGFG4 | 
[V:4] z4C,4 | 
[V:1] A3Bc2d2- | 
[V:2] f8 | 
[V:3] F8 | 
[V:4] F,3G,A,2B,2- | 
[V:1] dcBAB2AG | 
[V:2] d6e2 | 
[V:3] z4G4 | 
[V:4] B,A,G,4F,E, | 
[V:1] F2A3GB2- | 
[V:2] f8 | 
[V:3] A3Bc2d2- | 
[V:4] D,2F,3E,D,C, | 
[V:1] BAA4G2 | 
[V:2] z2f2d3e | 
[V:3] dcBAB4 | 
[V:4] B,,2F,2G,4 | 
[V:1] A8 | 
[V:2] f6ed | 
[V:3] A8 | 
[V:4] D,4F,4- | 
[V:1] z8 | 
[V:2] c2d4^c2 | 
[V:3] F4G4 | 
[V:4] F,2E,D,E,4 | 
[V:1] z4F4 | 
[V:2] d8 | 
[V:3] A8 | 
[V:4] D,8 | 
[V:1] G2B2A2B2- | 
[V:2] G4d4- | 
[V:3] z8 | 
[V:4] z8 | 
[V:1] B2AGA4 | 
[V:2] d2e2f4 | 
[V:3] z4F4 | 
[V:4] z8 | 
[V:1] G4z4 | 
[V:2] B4c2d2- | 
[V:3] G2B2A2B2- | 
[V:4] z2G,2F,2D,2 | 
[V:1] z2G4F2 | 
[V:2] d2c2d4 | 
[V:3] B2AGA4 | 
[V:4] E,4D,4 | 
[V:1] G2B3Ac2- | 
[V:2] z2g3fed | 
[V:3] G4z4 | 
[V:4] z8 | 
[V:1] cBB4A2 | 
[V:2] f2B2c4 | 
[V:3] z2G4F2 | 
[V:4] z8 | 
[V:1] B4z4 | 
[V:2] B4z4 | 
[V:3] G2B3Ac2- | 
[V:4] z2G,4E,2 | 
[V:1] z8 | 
[V:2] z8 | 
[V:3] cBB4A2 | 
[V:4] F,2D,2C,4 | 
[V:1] z4B4 | 
[V:2] d3ef2g2 | 
[V:3] B4d4 | 
[V:4] B,,2B,4A,G, | 
[V:1] A4B4 | 
[V:2] e2f2d2g2 | 
[V:3] c2d2B2d2 | 
[V:4] A,2F,2G,4 | 
[V:1] c3BAGA2- | 
[V:2] e2f3ecd | 
[V:3] c2d2A2c2- | 
[V:4] z2D,2F,3E, | 
[V:1] A2G4^F2 | 
[V:2] e2c2d4 | 
[V:3] cBG2A4 | 
[V:4] C,2E,2D,4 | 
[V:1] G4z4 | 
[V:2] B6AG | 
[V:3] G8 | 
[V:4] G,8 | 
[V:1] F4G4 | 
[V:2] A4G4 | 
[V:3] z8 | 
[V:4] z8 | 
[V:1] G4z4 | 
[V:2] z8 | 
[V:3] B6AG | 
[V:4] z8 | 
[V:1] F4G4- | 
[V:2] z4z2g2- | 
[V:3] A4G4 | 
[V:4] z8 | 
[V:1] G2A2B2c2- | 
[V:2] g2f2d2_e2- | 
[V:3] z8 | 
[V:4] z8 | 
[V:1] cBB4A2 | 
[V:2] edcBc4 | 
[V:3] z4F4 | 
[V:4] z8 | 
[V:1] B4z4 | 
[V:2] B3AGFG2 | 
[V:3] G3AB2c2- | 
[V:4] z2G,4E,2 | 
[V:1] z8 | 
[V:2] A2F4E2 | 
[V:3] cBB4A2 | 
[V:4] F,2D,2C,4 | 
[V:1] z4B4 | 
[V:2] F2B3cde | 
[V:3] B8 | 
[V:4] B,,8 | 
[V:1] A2c2B2A2- | 
[V:2] f3ed2c2 | 
[V:3] z8 | 
[V:4] z8 | 
[V:1] A2GFG4 | 
[V:2] d2A2z4 | 
[V:3] z4B4 | 
[V:4] z8 | 
[V:1] A4z4 | 
[V:2] z8 | 
[V:3] A2c2B2A2- | 
[V:4] F,3E,D,2C,2 | 
[V:1] z8 | 
[V:2] z8 | 
[V:3] A2GFG4 | 
[V:4] D,2A,,2B,,4 | 
[V:1] z4F4 | 
[V:2] c4d4 | 
[V:3] A8 | 
[V:4] A,,4D,4 | 
[V:1] G4B4 | 
[V:2] e2c2d3e | 
[V:3] z8 | 
[V:4] C,4G,4 | 
[V:1] A2c3BA2 | 
[V:2] f4f4 | 
[V:3] z4F4 | 
[V:4] F,4C4 | 
[V:1] G2B3cd2 | 
[V:2] d4g4 | 
[V:3] G4B4 | 
[V:4] B,4G,4 | 
[V:1] c2A3Bc2 | 
[V:2] e4f4 | 
[V:3] A2c3BA2 | 
[V:4] A,4F,4 | 
[V:1] B2d3cB2- | 
[V:2] d3ef2g2 | 
[V:3] G2B3cd2 | 
[V:4] G,4z2G,2 | 
[V:1] BAc3BAG | 
[V:2] e2f2c2f2- | 
[V:3] c2A3Bc2- | 
[V:4] A,G,F,E,F,4- | 
[V:1] A2G4^F2 | 
[V:2] fedcd4 | 
[V:3] cBAGA4 | 
[V:4] F,2G,2D,4 | 
[V:1] G4z4 | 
[V:2] B4G4 | 
[V:3] G8 | 
[V:4] G,8- | 
[V:1] (3:2:2B8B4 | 
[V:2] (3:2:2g8g4 | 
[V:3] z8 | 
[V:4] G,8 | 
[V:1] (3A4B4c4 | 
[V:2] (3f4g4e4 | 
[V:3] z8 | 
[V:4] z8 | 
[V:1] (3:2:2d8c4 | 
[V:2] (3:2:2d8e4 | 
[V:3] z8 | 
[V:4] z8 | 
[V:1] (3:2:2B4A8 | 
[V:2] (3g4^f6e2 | 
[V:3] z8 | 
[V:4] z8 | 
[V:1] (3:2:1G12 | 
[V:2] (3:2:1g12 | 
[V:3] (3:2:2B8B4 | 
[V:4] (3:2:2G,8G,4 | 
[V:1] z8 | 
[V:2] z8 | 
[V:3] (3A4B4c4 | 
[V:4] (3F,4G,4E,4 | 
[V:1] z8 | 
[V:2] z8 | 
[V:3] (3:2:2d8c4 | 
[V:4] (3:2:2D,8E,4 | 
[V:1] z8 | 
[V:2] z8 | 
[V:3] (3:2:2B4A8 | 
[V:4] (3G,4^F,6E,2 | 
[V:1] (3:2:2B8c4 | 
[V:2] z8 | 
[V:3] (3:2:1B12 | 
[V:4] (3:2:1G,12 | 
[V:1] (3:2:2d8_e4 | 
[V:2] (3:2:2B8c4 | 
[V:3] z8 | 
[V:4] z8 | 
[V:1] (3d4B4c4 | 
[V:2] (3:2:2d8e4 | 
[V:3] z8 | 
[V:4] z8 | 
[V:1] (3:2:2d8z4 | 
[V:2] (3f4g4e4 | 
[V:3] (3:2:2B8c4 | 
[V:4] z8 | 
[V:1] z8 | 
[V:2] (3:2:2d8c4 | 
[V:3] (3:2:2d8_e4 | 
[V:4] (3:2:2B,,8C,4 | 
[V:1] z8 | 
[V:2] (3A4B4G4 | 
[V:3] (3d4B4c4 | 
[V:4] (3:2:2D,8_E,4 | 
[V:1] (3:2:2d8e4 | 
[V:2] (3A4B4G4 | 
[V:3] (3:2:2d8z4 | 
[V:4] (3D,4B,,4C,4 | 
[V:1] (3:2:2f8e4 | 
[V:2] (3F4B4c4 | 
[V:3] z8 | 
[V:4] (3:2:2D,8z4 | 
[V:1] (3d6c2B4 | 
[V:2] (3d4A4B4 | 
[V:3] (3:2:2d8e4 | 
[V:4] (3:2:2D,8G,4 | 
[V:1] (3:2:2A8c4 | 
[V:2] (3c4d4A4 | 
[V:3] (3:2:2f8e4 | 
[V:4] (3F,4D,4A,4 | 
[V:1] (3B4A4B4 | 
[V:2] (3f6e2d4 | 
[V:3] (3d6c2B4 | 
[V:4] (3B,4F,4G,4 | 
[V:1] (3:2:2c4A8 | 
[V:2] (3:2:2c4f8 | 
[V:3] (3:2:2A8c4 | 
[V:4] (3:2:2A,4F,8 | 
[V:1] (3G4A6G2 | 
[V:2] (3e4f4d4 | 
[V:3] (3B4A4B4 | 
[V:4] (3G,4F,4G,4 | 
[V:1] (3:2:2G8^F4 | 
[V:2] (3:2:2_e4d8 | 
[V:3] (3:2:2c4A8 | 
[V:4] (3:2:2C,4D,8 | 
[V:1] G8 | 
[V:2] B4G4 | 
[V:3] G8- | 
[V:4] D6B,2- | 
[V:1] z8 | 
[V:2] z2d2d2e2 | 
[V:3] G8 | 
[V:4] B,A,G,4F,E, | 
[V:1] z2d2d2e2 | 
[V:2] f3ed2c2 | 
[V:3] z8 | 
[V:4] D,4z4 | 
[V:1] f3ed2c2 | 
[V:2] d4z4 | 
[V:3] z2d2d2e2 | 
[V:4] z8 | 
[V:1] d4z4 | 
[V:2] z8 | 
[V:3] f3ed2c2 | 
[V:4] z2D,2D,2E,2 | 
[V:1] z8 | 
[V:2] z2A2B2c2 | 
[V:3] d4z4 | 
[V:4] F,3E,D,2C,2 | 
[V:1] z2d2d3c | 
[V:2] A2d3cBA | 
[V:3] z4z2d2 | 
[V:4] D,4G,4- | 
[V:1] B2A2G2c2 | 
[V:2] G2d3ef2 | 
[V:3] d3cB2A2 | 
[V:4] G,2D,2G,2F,2 | 
[V:1] B2A2G2c2 | 
[V:2] d2f2e2f2 | 
[V:3] G2c2B2A2 | 
[V:4] G,2F,2G,2F,2 | 
[V:1] B2G3ABc | 
[V:2] d2e2d4 | 
[V:3] G2c2B2G2- | 
[V:4] G,2C,2G,3A, | 
[V:1] d2G2z2d2- | 
[V:2] G3ABcd2 | 
[V:3] GABcd2G2 | 
[V:4] B,CD2G,2B,2- | 
[V:1] dcBAB2cB | 
[V:2] G2g4e2 | 
[V:3] z2d4c2- | 
[V:4] B,A,G,F,G,2A,2 | 
[V:1] AGG4^F2 | 
[V:2] f2d3cA2 | 
[V:3] c2B2A4 | 
[V:4] F,2G,2D,4 | 
[V:1] G8 ||  
[V:2] B8 ||  
[V:3] G8 ||  
[V:4] G,8 ||  
[V:1] [M:2/1]z8 | 
[V:2] [M:2/1]g8 | 
[V:3] [M:2/1]z8 | 
[V:4] [M:2/1]G,8 | 
[V:1] z8 | 
[V:2] f4g4 | 
[V:3] z8 | 
[V:4] A,4B,4 | 
[V:1] d8 | 
[V:2] g8 | 
[V:3] d8 | 
[V:4] G,8 | 
[V:1] c4d4 | 
[V:2] z8 | 
[V:3] e4f4 | 
[V:4] z8 | 
[V:1] d8 | 
[V:2] z8 | 
[V:3] d8- | 
[V:4] z4G,4 | 
[V:1] z8 | 
[V:2] z4d4 | 
[V:3] d8 | 
[V:4] G,4G,4 | 
[V:1] z4d4 | 
[V:2] d4d4 | 
[V:3] z8 | 
[V:4] B,6C2 | 
[V:1] d4d4 | 
[V:2] f6g2 | 
[V:3] z4d4 | 
[V:4] D4D,4 | 
[V:1] f6e2 | 
[V:2] a4d4- | 
[V:3] d4d4 | 
[V:4] z4D,4- | 
[V:1] d4c4 | 
[V:2] d2cBA4 | 
[V:3] f6e2 | 
[V:4] D,2E,2F,4 | 
[V:1] B4A4 | 
[V:2] B2f3ga2 | 
[V:3] d4c4 | 
[V:4] B,,4F,4 | 
[V:1] G4c4- | 
[V:2] d2g3cf2- | 
[V:3] B4A4 | 
[V:4] z2G,2A,2F,2 | 
[V:1] c2B2A4 | 
[V:2] fde2f4 | 
[V:3] G4c4- | 
[V:4] G,4F,4 | 
[V:1] G4c4- | 
[V:2] g4c2f2- | 
[V:3] c2B2A4 | 
[V:4] z2G,2A,2F,2 | 
[V:1] c2B2c2A2 | 
[V:2] f2e2f4 | 
[V:3] G4c4- | 
[V:4] G,4F,4 | 
[V:1] G2B2A2G2- | 
[V:2] z2d2e4 | 
[V:3] c2B2c4 | 
[V:4] G,4z2C,2 | 
[V:1] GFF4E2 | 
[V:2] d4c4 | 
[V:3] A2B2G4 | 
[V:4] D,2B,,2C,4 | 
[V:1] F8- | 
[V:2] A4d4- | 
[V:3] F8 | 
[V:4] D,8 | 
[V:1] F8 | 
[V:2] d2e2f4- | 
[V:3] B6B2 | 
[V:4] B,,6C,2 | 
[V:1] z8 | 
[V:2] f2edc2BA | 
[V:3] B4A4 | 
[V:4] D,2E,2F,4 | 
[V:1] z8 | 
[V:2] G4F4 | 
[V:3] B4c4 | 
[V:4] G,2B,4A,2 | 
[V:1] B6B2 | 
[V:2] f6f2 | 
[V:3] d8 | 
[V:4] B,8 | 
[V:1] B4A4 | 
[V:2] f4e4 | 
[V:3] B4c4 | 
[V:4] z8 | 
[V:1] B4c4 | 
[V:2] f4g4 | 
[V:3] d4e4 | 
[V:4] z8 | 
[V:1] d6_e2- | 
[V:2] a6b2- | 
[V:3] f2d4g2- | 
[V:4] z8 | 
[V:1] edd4c2 | 
[V:2] baa4g2 | 
[V:3] gfd2_e4 | 
[V:4] z8 | 
[V:1] d8 | 
[V:2] a3gfed2 | 
[V:3] d6f2- | 
[V:4] z8 | 
[V:1] z8 | 
[V:2] z8 | 
[V:3] fed2c2d2- | 
[V:4] z2D,2E,2F,2- | 
[V:1] z8 | 
[V:2] z8 | 
[V:3] dcB4A2 | 
[V:4] F,E,D,2C,4 | 
[V:1] z2d2e2f2- | 
[V:2] z8 | 
[V:3] B4z4 | 
[V:4] B,,4z4 | 
[V:1] fed2c2d2- | 
[V:2] z2d2e2f2- | 
[V:3] z8 | 
[V:4] z8 | 
[V:1] dcB4A2 | 
[V:2] fed2c4 | 
[V:3] z8 | 
[V:4] z8 | 
[V:1] B4z4 | 
[V:2] B4z4 | 
[V:3] z2B2c2d2- | 
[V:4] z8 | 
[V:1] z8 | 
[V:2] z8 | 
[V:3] dcB2A2B2- | 
[V:4] z2B,2C2D2- | 
[V:1] z8 | 
[V:2] z8 | 
[V:3] BAG4^F2 | 
[V:4] DCB,2A,4 | 
[V:1] z2B2c2d2- | 
[V:2] z8 | 
[V:3] G4z4 | 
[V:4] G,4A,2B,2- | 
[V:1] dcB2A2B2- | 
[V:2] z2B2c2d2- | 
[V:3] z8 | 
[V:4] B,2A,G,A,2G,2- | 
[V:1] BAG4F2 | 
[V:2] dcB2A4 | 
[V:3] z8 | 
[V:4] G,2G,2D,4 | 
[V:1] GABcd2_e2- | 
[V:2] G4z4 | 
[V:3] z2g2f2g2- | 
[V:4] z8 | 
[V:1] edd4c2 | 
[V:2] z4g4 | 
[V:3] gfd2_e4 | 
[V:4] z8 | 
[V:1] d4z4 | 
[V:2] f3g/a/b2a2- | 
[V:3] d4z4 | 
[V:4] z2D4C2 | 
[V:1] z8 | 
[V:2] agg4^f2 | 
[V:3] z8 | 
[V:4] B,2G,2A,4 | 
[V:1] G3ABcd2- | 
[V:2] g4z4 | 
[V:3] z2g4f2 | 
[V:4] G,4z4 | 
[V:1] dcc4=B2 | 
[V:2] z8 | 
[V:3] e2c2d4 | 
[V:4] z8 | 
[V:1] c4z4 | 
[V:2] c3defg2- | 
[V:3] c4z4 | 
[V:4] z2C4B,2 | 
[V:1] z8 | 
[V:2] gff4e2 | 
[V:3] z8 | 
[V:4] A,2F,2G,4 | 
[V:1] F3GABc2- | 
[V:2] f4z4 | 
[V:3] z2f4e2 | 
[V:4] F,4z4 | 
[V:1] cBB4A2 | 
[V:2] z8 | 
[V:3] d2B2c4 | 
[V:4] z8 | 
[V:1] B4z4 | 
[V:2] z4z2g2 | 
[V:3] B4z4 | 
[V:4] z2G,2F,2G,2 | 
[V:1] z8 | 
[V:2] f2g2d2e2- | 
[V:3] z8 | 
[V:4] D,2G,2F,2G,2- | 
[V:1] z8 | 
[V:2] edd4^c2 | 
[V:3] z8 | 
[V:4] G,F,D,2E,4 | 
[V:1] F3GA2B2 | 
[V:2] d4z4 | 
[V:3] z2d2c2d2 | 
[V:4] D,4z4 | 
[V:1] c2A4B2- | 
[V:2] z8 | 
[V:3] A2d2c2d2- | 
[V:4] z8 | 
[V:1] BAA4G2 | 
[V:2] z8 | 
[V:3] dcA2B4 | 
[V:4] z8 | 
[V:1] A4z4 | 
[V:2] ABcde2f2- | 
[V:3] A4z4 | 
[V:4] z2A,2G,2A,2 | 
[V:1] z8 | 
[V:2] fed4^c2 | 
[V:3] z8 | 
[V:4] F,2G,2E,4 | 
[V:1] DEFGA2B2- | 
[V:2] d4z4 | 
[V:3] z2d2c2d2 | 
[V:4] D,4z4 | 
[V:1] BAG4^F2 | 
[V:2] z8 | 
[V:3] B2c2A4 | 
[V:4] z8 | 
[V:1] G4z4 | 
[V:2] GABcd2e2- | 
[V:3] G4z4 | 
[V:4] z2G,2F,2G,2 | 
[V:1] z8 | 
[V:2] edc4=B2 | 
[V:3] z8 | 
[V:4] E,2F,2D,4 | 
[V:1] CDEFG2A2- | 
[V:2] c4z4 | 
[V:3] z2c2B2c2 | 
[V:4] C,4z4 | 
[V:1] AGF4E2 | 
[V:2] z8 | 
[V:3] A2B2G4 | 
[V:4] z4z2C,2 | 
[V:1] F4z4 | 
[V:2] z2c2f3e | 
[V:3] F4z4 | 
[V:4] F,3E,F,2G,2 | 
[V:1] z8 | 
[V:2] f2g2a2b2- | 
[V:3] z8 | 
[V:4] A,2B,2A,2D2- | 
[V:1] z8 | 
[V:2] baa4g2 | 
[V:3] z8 | 
[V:4] D2C2B,4 | 
[V:1] z8 | 
[V:2] a4agfe | 
[V:3] z4z2F2 | 
[V:4] A,3G,F,E,D,2 | 
[V:1] z2F2B3A | 
[V:2] d6e2 | 
[V:3] B3AB2c2 | 
[V:4] D6C2 | 
[V:1] B2c2d2e2- | 
[V:2] f2c2f2e2 | 
[V:3] d2e2d2g2- | 
[V:4] B,2A,2D2C2 | 
[V:1] edd4^c2 | 
[V:2] g4a4 | 
[V:3] gfd2e4 | 
[V:4] B,4A,4 | 
[V:1] d8 | 
[V:2] f3dd4 | 
[V:3] d8 | 
[V:4] D,4z2G,2 | 
[V:1] z8 | 
[V:2] z2d2c2d2 | 
[V:3] z8 | 
[V:4] F,2G,2A,2B,2 | 
[V:1] z4z2G2 | 
[V:2] e2f2g2e2 | 
[V:3] z8 | 
[V:4] C2A,2G,4 | 
[V:1] F2G2A2B2 | 
[V:2] d8 | 
[V:3] z2G2F2G2 | 
[V:4] z4z2G,2 | 
[V:1] c3BAGA2- | 
[V:2] z2g2e2f2 | 
[V:3] A2B2c3B | 
[V:4] F,2G,2A,2F,2 | 
[V:1] A2G4^F2 | 
[V:2] e2d3cA2 | 
[V:3] G2B2A4 | 
[V:4] G,4D,4 | 
[V:1] G8- | 
[V:2] B2G2_e4 | 
[V:3] G8- | 
[V:4] G,8- | 
[V:1] G8 ||  
[V:2] d8 ||  
[V:3] G8 ||  
[V:4] G,8 ||  
[V:1] [M:2/1]z8 | 
[V:2] [M:2/1]g8 | 
[V:3] [M:2/1]z8 | 
[V:4] [M:2/1]z8 | 
[V:1] z8 | 
[V:2] g4f4 | 
[V:3] z8 | 
[V:4] z8 | 
[V:1] z8 | 
[V:2] g8 | 
[V:3] z8 | 
[V:4] G,8 | 
[V:1] z8 | 
[V:2] g4a4 | 
[V:3] z8 | 
[V:4] G,4F,4 | 
[V:1] d8 | 
[V:2] b6a2 | 
[V:3] z8 | 
[V:4] G,8 | 
[V:1] d4c4 | 
[V:2] g2f2e4 | 
[V:3] z8 | 
[V:4] G,4A,4 | 
[V:1] d8 | 
[V:2] d6c2 | 
[V:3] d8 | 
[V:4] B,6A,2 | 
[V:1] d4e4 | 
[V:2] B2A2G4 | 
[V:3] d4c4 | 
[V:4] G,2F,2E,4 | 
[V:1] f6e2 | 
[V:2] A8 | 
[V:3] d8 | 
[V:4] D,8 | 
[V:1] d2c2B4 | 
[V:2] B8 | 
[V:3] d4e4 | 
[V:4] G,8 | 
[V:1] A3GABc2 | 
[V:2] c4A4 | 
[V:3] f6e2 | 
[V:4] F,8 | 
[V:1] B2A4G2 | 
[V:2] B2c2d2e2 | 
[V:3] d2c2B4 | 
[V:4] G,8 | 
[V:1] A8 | 
[V:2] f6ed | 
[V:3] A8- | 
[V:4] z4D,4- | 
[V:1] z4A4 | 
[V:2] f3ec4 | 
[V:3] A8 | 
[V:4] D,2E,2F,4 | 
[V:1] B4A4 | 
[V:2] B3A/G/d4 | 
[V:3] z4A4 | 
[V:4] G,4D,4 | 
[V:1] F2G2A2B2 | 
[V:2] z8 | 
[V:3] B4A4 | 
[V:4] z8 | 
[V:1] c3BAGB2- | 
[V:2] z8 | 
[V:3] z2A4G2 | 
[V:4] z8 | 
[V:1] BAA4G2 | 
[V:2] z4d4 | 
[V:3] A4B4 | 
[V:4] z8 | 
[V:1] A8 | 
[V:2] e4d4 | 
[V:3] A8 | 
[V:4] z4D,4 | 
[V:1] z8 | 
[V:2] =B2c2d2e2 | 
[V:3] z8 | 
[V:4] E,4D,4 | 
[V:1] z8 | 
[V:2] f3edce2- | 
[V:3] z8 | 
[V:4] z2D,4C,2 | 
[V:1] z8 | 
[V:2] edd4^c2 | 
[V:3] z2A4G2 | 
[V:4] D,4E,4 | 
[V:1] z2A4G2 | 
[V:2] d4z2d2 | 
[V:3] A4B4 | 
[V:4] D,4z2G,2- | 
[V:1] A4B4 | 
[V:2] e2f2edg2- | 
[V:3] A4z2d2- | 
[V:4] G,2F,2G,4 | 
[V:1] A2c4=B2 | 
[V:2] g2f2g4 | 
[V:3] d2c2d4 | 
[V:4] A,4G,4 | 
[V:1] c4d4 | 
[V:2] c4z4 | 
[V:3] e4d4 | 
[V:4] z2C4B,2 | 
[V:1] G4z4 | 
[V:2] z4c4 | 
[V:3] z2g4f2 | 
[V:4] C2G,2A,4 | 
[V:1] z2d4c2 | 
[V:2] d4z4 | 
[V:3] g2d2e4 | 
[V:4] G,2B,4A,2 | 
[V:1] d2A2B4 | 
[V:2] z4B4 | 
[V:3] d2f4e2 | 
[V:4] B,2F,2G,4 | 
[V:1] A8 | 
[V:2] c2f3ef2 | 
[V:3] f2d2c4 | 
[V:4] F,8 | 
[V:1] z2B4A2 | 
[V:2] dcBAG2A2 | 
[V:3] B3A/G/d4 | 
[V:4] z2G,4F,2 | 
[V:1] B2F2G4 | 
[V:2] G2A4G2 | 
[V:3] z2d4c2 | 
[V:4] G,2D,2E,4 | 
[V:1] F8 | 
[V:2] A4d4- | 
[V:3] d2A2B4 | 
[V:4] D,8- | 
[V:1] z4F4 | 
[V:2] d2e2f2d2 | 
[V:3] A8 | 
[V:4] D,8 | 
[V:1] G2B2A2c2- | 
[V:2] e2g2f2a2- | 
[V:3] z8 | 
[V:4] z8 | 
[V:1] cBAGA4 | 
[V:2] agg4f2 | 
[V:3] z8 | 
[V:4] z4z2D,2 | 
[V:1] G4z4 | 
[V:2] g2e3dd2- | 
[V:3] z8 | 
[V:4] E,2C,2D,2F,2 | 
[V:1] z2G2F2A2- | 
[V:2] d2^c2d4 | 
[V:3] z2G2A2F2 | 
[V:4] E,4D,4 | 
[V:1] AGG4^F2 | 
[V:2] z8 | 
[V:3] G2B2A4 | 
[V:4] z4z2A,2 | 
[V:1] G4z4 | 
[V:2] z2g2f2b2- | 
[V:3] G4z4 | 
[V:4] B,2C2D3C | 
[V:1] z8 | 
[V:2] baa4g2 | 
[V:3] z4z2d2 | 
[V:4] A,2C2B,4 | 
[V:1] z2c2B2_e2- | 
[V:2] a4z4 | 
[V:3] e2f2g3f | 
[V:4] A,4z4 | 
[V:1] edd4c2 | 
[V:2] z4a4 | 
[V:3] d2f2e4 | 
[V:4] z4A,4 | 
[V:1] d4z2B2 | 
[V:2] f4g4 | 
[V:3] d4z2g2- | 
[V:4] B,4G,4 | 
[V:1] c4B2c2- | 
[V:2] z2c2d2c2 | 
[V:3] g2f2g2e2- | 
[V:4] A,4G,2A,2- | 
[V:1] c2A2B3c | 
[V:2] A4z2B2 | 
[V:3] e2f4e2 | 
[V:4] A,2F,2G,4 | 
[V:1] A2d4B2 | 
[V:2] c2B2G2b2 | 
[V:3] f2d4_e2- | 
[V:4] F,2B,4G,2 | 
[V:1] c2d2B2c2- | 
[V:2] a2f2g2e2- | 
[V:3] e2d2_e2c2- | 
[V:4] A,2B,2G,2A,2- | 
[V:1] c2A2B2c2 | 
[V:2] efa2g2e2 | 
[V:3] c2d4c2 | 
[V:4] A,2F,2G,2A,2 | 
[V:1] A2B4G2 | 
[V:2] f2d3eg2 | 
[V:3] d2B4c2- | 
[V:4] D,2G,4E,2 | 
[V:1] A2B2G2A2- | 
[V:2] f2d2e2c2- | 
[V:3] c2B2c2A2- | 
[V:4] F,2G,2C,2F,2- | 
[V:1] A2F2G2A2 | 
[V:2] cdf2e2d2- | 
[V:3] A2B4A2 | 
[V:4] F,2D,2E,2F,2 | 
[V:1] D2G4^F2 | 
[V:2] d2c2d4 | 
[V:3] B2G2A4 | 
[V:4] G,2_E,2D,4 | 
[V:1] G8 | 
[V:2] B3cd2_e2 | 
[V:3] G8- | 
[V:4] D4B,3C | 
[V:1] z4G4 | 
[V:2] d2g3ab2- | 
[V:3] G8 | 
[V:4] D2_E2D4 | 
[V:1] B4c4 | 
[V:2] bagfe4 | 
[V:3] z8 | 
[V:4] G,4A,4 | 
[V:1] d8 | 
[V:2] d8 | 
[V:3] z4G4 | 
[V:4] D,2G,3A,B,2- | 
[V:1] z8 | 
[V:2] G8 | 
[V:3] B4c4 | 
[V:4] B,A,G,F,E,4 | 
[V:1] z4d4 | 
[V:2] A8 | 
[V:3] d8 | 
[V:4] D,8- | 
[V:1] f6e2 | 
[V:2] z4d4 | 
[V:3] z8 | 
[V:4] D,8 | 
[V:1] d4c2d2- | 
[V:2] f3ga2b2- | 
[V:3] z8 | 
[V:4] z8 | 
[V:1] dcA2B4 | 
[V:2] baa4g2 | 
[V:3] z4d4 | 
[V:4] z4G,4 | 
[V:1] A4F4- | 
[V:2] a8 | 
[V:3] f6e2 | 
[V:4] F,3E,D,2C,2 | 
[V:1] F2G2A2B2- | 
[V:2] z8 | 
[V:3] d4c2d2- | 
[V:4] B,,2B,2A,2G,2- | 
[V:1] BAA4G2 | 
[V:2] z4d4- | 
[V:3] dcA2B4 | 
[V:4] G,2F,2G,4 | 
[V:1] A6GF | 
[V:2] d2f3ed2- | 
[V:3] A8- | 
[V:4] D,8- | 
[V:1] F8 | 
[V:2] d2cBA4 | 
[V:3] A8 | 
[V:4] D,8 | 
[V:1] (3G4G4G4 | 
[V:2] (3B4B4B4 | 
[V:3] z8 | 
[V:4] z8 | 
[V:1] (3:2:2A8G4 | 
[V:2] (3A6B2c4 | 
[V:3] z8 | 
[V:4] z8 | 
[V:1] (3F4D4E4 | 
[V:2] (3:2:2d8^c4 | 
[V:3] z8 | 
[V:4] z8 | 
[V:1] (3:2:2D8z4 | 
[V:2] (3:2:2d8z4 | 
[V:3] z8 | 
[V:4] z8 | 
[V:1] (3:2:2B8B4 | 
[V:2] (3:2:2g8g4 | 
[V:3] (3:2:2d8d4 | 
[V:4] (3:2:2G,8G,4 | 
[V:1] (3c4A4B4 | 
[V:2] (3e6f2g4 | 
[V:3] (3:2:2c8d4 | 
[V:4] (3:2:2A,8G,4 | 
[V:1] (3A4F4G4 | 
[V:2] (3c4d4c4 | 
[V:3] (3A4B4G4 | 
[V:4] (3F,4D,4E,4 | 
[V:1] (3:2:2F8z4 | 
[V:2] (3:2:2d8z4 | 
[V:3] (3:2:2A8z4 | 
[V:4] (3:2:2D,8z4 | 
[V:1] (3:2:2d8e4 | 
[V:2] (3:2:2g8g4 | 
[V:3] z8 | 
[V:4] z8 | 
[V:1] (3f4e6d2 | 
[V:2] (3:2:2a8g4 | 
[V:3] z8 | 
[V:4] z8 | 
[V:1] (3:2:2d8^c4 | 
[V:2] (3f4d4e4 | 
[V:3] z8 | 
[V:4] z8 | 
[V:1] (3:2:2d8z4 | 
[V:2] (3:2:2d8z4 | 
[V:3] z8 | 
[V:4] z8 | 
[V:1] (3B4B4B4 | 
[V:2] (3g4g4g4 | 
[V:3] (3d4d4d4 | 
[V:4] (3G,4G,4G,4 | 
[V:1] (3:2:2c8B4 | 
[V:2] (3e4f4d4 | 
[V:3] (3c4A4B4 | 
[V:4] (3A,4F,4G,4 | 
[V:1] (3G4A6G2 | 
[V:2] (3c4A4B4 | 
[V:3] (3:2:2c8B4 | 
[V:4] (3C,4F,4G,4 | 
[V:1] (3:2:2G8^F4 | 
[V:2] (3:2:2c4d8 | 
[V:3] (3:2:2G4A8 | 
[V:4] (3:2:2E,4D,8 | 
[V:1] G8 | 
[V:2] B6G2 | 
[V:3] G8- | 
[V:4] D6B,2- | 
[V:1] z8 | 
[V:2] G4z4 | 
[V:3] G8 | 
[V:4] B,2G,2G,4 | 
[V:1] B4B2B2 | 
[V:2] g4g2g2 | 
[V:3] z8 | 
[V:4] z8 | 
[V:1] c4A4 | 
[V:2] a4f4 | 
[V:3] z8 | 
[V:4] z8 | 
[V:1] z8 | 
[V:2] z8 | 
[V:3] A4G2A2 | 
[V:4] F,4E,2F,2 | 
[V:1] z8 | 
[V:2] z8 | 
[V:3] B4B4 | 
[V:4] G,4G,4 | 
[V:1] B3BB2d2 | 
[V:2] g3gg2b2 | 
[V:3] z8 | 
[V:4] z8 | 
[V:1] c2B2A4 | 
[V:2] a2g2f4 | 
[V:3] z8 | 
[V:4] z8 | 
[V:1] z8 | 
[V:2] z8 | 
[V:3] A4G2A2 | 
[V:4] F,4E,2F,2 | 
[V:1] z8 | 
[V:2] z8 | 
[V:3] B4B4 | 
[V:4] G,4G,4 | 
[V:1] (3B4B4B4 | 
[V:2] (3g4g4g4 | 
[V:3] z8 | 
[V:4] z8 | 
[V:1] (3A4B4c4 | 
[V:2] (3f4g4e4 | 
[V:3] z8 | 
[V:4] z8 | 
[V:1] (3d6c2A4 | 
[V:2] (3d6e2f4 | 
[V:3] z8 | 
[V:4] z8 | 
[V:1] (3B4B4A4 | 
[V:2] (3g4f4f4 | 
[V:3] (3d4d4c4 | 
[V:4] (3G,4B,4F,4 | 
[V:1] (3G4A6G2 | 
[V:2] (3d4f6e2 | 
[V:3] (3B4c6B2 | 
[V:4] (3G,4F,6G,2 | 
[V:1] (3:2:2G8^F4 | 
[V:2] (3:2:2c4d8 | 
[V:3] (3:2:2G4A8 | 
[V:4] (3:2:2E,4D,8 | 
[V:1] G8 ||  
[V:2] d8 ||  
[V:3] G8 ||  
[V:4] G,8 ||  
[V:1] [M:2/1]z8 | 
[V:2] [M:2/1]z8 | 
[V:3] [M:2/1]z8 | 
[V:4] [M:2/1]G,8 | 
[V:1] z8 | 
[V:2] z8 | 
[V:3] z8 | 
[V:4] F,4F,4 | 
[V:1] z8 | 
[V:2] z8 | 
[V:3] G8 | 
[V:4] B,8 | 
[V:1] z8 | 
[V:2] z8 | 
[V:3] F4F4 | 
[V:4] A,4D,4- | 
[V:1] z8 | 
[V:2] z8 | 
[V:3] B8 | 
[V:4] D,2E,F,G,4 | 
[V:1] z8 | 
[V:2] z8 | 
[V:3] A8 | 
[V:4] F,6D,2- | 
[V:1] z8 | 
[V:2] z8 | 
[V:3] z4d4- | 
[V:4] D,2C,B,,B,,2F,2 | 
[V:1] z8 | 
[V:2] z8 | 
[V:3] d4c4 | 
[V:4] G,2B,4A,2 | 
[V:1] z8 | 
[V:2] z8 | 
[V:3] B6AG | 
[V:4] B,2G,4F,E, | 
[V:1] z8 | 
[V:2] z8 | 
[V:3] B4A4- | 
[V:4] D,2G,4F,2 | 
[V:1] z8 | 
[V:2] z8 | 
[V:3] A2G2G4- | 
[V:4] G,4B,4 | 
[V:1] z8 | 
[V:2] z8 | 
[V:3] G4F4 | 
[V:4] A,8 | 
[V:1] z8 | 
[V:2] g8 | 
[V:3] G4B4 | 
[V:4] G,8 | 
[V:1] z8 | 
[V:2] f4f4 | 
[V:3] A8 | 
[V:4] D,8 | 
[V:1] G8 | 
[V:2] b8 | 
[V:3] z8 | 
[V:4] z8 | 
[V:1] F4F4 | 
[V:2] a4d4- | 
[V:3] z8 | 
[V:4] z8 | 
[V:1] B8 | 
[V:2] d2efg4 | 
[V:3] z4d4- | 
[V:4] G,8 | 
[V:1] A8 | 
[V:2] f6e2 | 
[V:3] d4c4 | 
[V:4] D,4F,4 | 
[V:1] z4d4- | 
[V:2] d2c2B4 | 
[V:3] B6AG | 
[V:4] G,3A,B,4 | 
[V:1] d4c4 | 
[V:2] f6e2 | 
[V:3] B4A4 | 
[V:4] B,,4F,4 | 
[V:1] B6AG | 
[V:2] d8 | 
[V:3] z4d4- | 
[V:4] G,3A,B,4- | 
[V:1] B4A4- | 
[V:2] B4c4 | 
[V:3] d4c4 | 
[V:4] B,4F,4 | 
[V:1] A2G2G4- | 
[V:2] B4c4 | 
[V:3] B4G4 | 
[V:4] G,4E,4 | 
[V:1] G4^F4 | 
[V:2] d8 | 
[V:3] A8 | 
[V:4] D,8 | 
[V:1] G8 | 
[V:2] B4G4 | 
[V:3] G4B4- | 
[V:4] _E,8 | 
[V:1] z8 | 
[V:2] z8 | 
[V:3] B4A4 | 
[V:4] D,8 | 
[V:1] z8 | 
[V:2] z8 | 
[V:3] G8 | 
[V:4] _E,8 | 
[V:1] z8 | 
[V:2] z8 | 
[V:3] F4G4- | 
[V:4] D,4_E,4- | 
[V:1] z8 | 
[V:2] z8 | 
[V:3] G2F2B4- | 
[V:4] E,4D,4 | 
[V:1] z8 | 
[V:2] _e8 | 
[V:3] B4A4 | 
[V:4] C,8 | 
[V:1] z4B4- | 
[V:2] d3cB2A2 | 
[V:3] B6c2 | 
[V:4] B,,8 | 
[V:1] B4A4 | 
[V:2] G4F4 | 
[V:3] d2e2f4- | 
[V:4] z8 | 
[V:1] G8 | 
[V:2] c3Bc2G2 | 
[V:3] f4e4 | 
[V:4] z8 | 
[V:1] F4G4- | 
[V:2] B4_E4- | 
[V:3] d4_e4- | 
[V:4] z4C,4- | 
[V:1] G2F2B4- | 
[V:2] E4f4- | 
[V:3] e4d4 | 
[V:4] C,4B,,4 | 
[V:1] B4A4 | 
[V:2] f4f4 | 
[V:3] c8 | 
[V:4] F,8 | 
[V:1] B8- | 
[V:2] d8 | 
[V:3] B8- | 
[V:4] z4B,,4 | 
[V:1] B8 | 
[V:2] z4B4 | 
[V:3] B8 | 
[V:4] B,,4B,,4 | 
[V:1] z8 | 
[V:2] B4B4 | 
[V:3] z4G4 | 
[V:4] _E,8- | 
[V:1] z4G4 | 
[V:2] _e8- | 
[V:3] G4G4 | 
[V:4] E,6D,C, | 
[V:1] G4G4 | 
[V:2] e6dc | 
[V:3] c6B2 | 
[V:4] C,8 | 
[V:1] c6B2 | 
[V:2] c8 | 
[V:3] A2G2F4 | 
[V:4] z4F,4- | 
[V:1] A2G2F4 | 
[V:2] z4f4- | 
[V:3] f6e2 | 
[V:4] F,2E,2D,2C,2 | 
[V:1] f6e2 | 
[V:2] f2e2d2c2 | 
[V:3] d2c2B4 | 
[V:4] B,,8- | 
[V:1] d2c2B3A | 
[V:2] B4f4- | 
[V:3] f3ed2c2 | 
[V:4] B,,8- | 
[V:1] f6e2 | 
[V:2] f2e2d2c2 | 
[V:3] B3Af4- | 
[V:4] B,,8 | 
[V:1] d2c2B2A2- | 
[V:2] B3Af3e | 
[V:3] f2e2d2c2 | 
[V:4] B,,6C,2 | 
[V:1] A2G4^F2 | 
[V:2] d2c2d4 | 
[V:3] B2G2A4 | 
[V:4] D,2_E,2D,4 | 
[V:1] G8- | 
[V:2] B8 | 
[V:3] G8- | 
[V:4] G,8 | 
[V:1] G8 | 
[V:2] z4b4 | 
[V:3] G8 | 
[V:4] z4G,4 | 
[V:1] z8 | 
[V:2] a4g4 | 
[V:3] z8 | 
[V:4] F,4G,4 | 
[V:1] z8 | 
[V:2] ^f6e2 | 
[V:3] z8 | 
[V:4] A,8 | 
[V:1] z4B4 | 
[V:2] g8 | 
[V:3] z4G4 | 
[V:4] G,8 | 
[V:1] A4G4 | 
[V:2] z8 | 
[V:3] F4G4 | 
[V:4] z8 | 
[V:1] ^F6E2 | 
[V:2] z8 | 
[V:3] A8 | 
[V:4] z8 | 
[V:1] G8 | 
[V:2] z8 | 
[V:3] G8 | 
[V:4] z4B,4- | 
[V:1] z8 | 
[V:2] z8 | 
[V:3] d8 | 
[V:4] B,4B,4 | 
[V:1] z8 | 
[V:2] z8 | 
[V:3] d4d4 | 
[V:4] B,4B,4 | 
[V:1] z8 | 
[V:2] z8 | 
[V:3] c4B4 | 
[V:4] A,4G,4 | 
[V:1] z8 | 
[V:2] z8 | 
[V:3] A2f4e2 | 
[V:4] F,3E,D,2C,2- | 
[V:1] z8 | 
[V:2] z8 | 
[V:3] d2B2c4 | 
[V:4] C,B,,B,4A,2 | 
[V:1] z4B4- | 
[V:2] d8 | 
[V:3] B8- | 
[V:4] B,6B,,2 | 
[V:1] B4B4 | 
[V:2] d4d4 | 
[V:3] B8 | 
[V:4] B,,8 | 
[V:1] B4B4 | 
[V:2] G4d4 | 
[V:3] z8 | 
[V:4] z8 | 
[V:1] A4G4 | 
[V:2] c2A2B3c | 
[V:3] z8 | 
[V:4] z8 | 
[V:1] F3GABc2- | 
[V:2] A2f4e2 | 
[V:3] z8 | 
[V:4] z8 | 
[V:1] cBB4A2 | 
[V:2] d2B2c4 | 
[V:3] z8 | 
[V:4] z8 | 
[V:1] B8 | 
[V:2] B8 | 
[V:3] z4d4 | 
[V:4] z2B,,3C,D,2 | 
[V:1] z8 | 
[V:2] z8 | 
[V:3] c4d4 | 
[V:4] E,2F,2B,,2B,2- | 
[V:1] z8 | 
[V:2] z8 | 
[V:3] G2d2c2d2- | 
[V:4] B,A,G,F,_E,2D,2- | 
[V:1] z8 | 
[V:2] z8 | 
[V:3] d2B2A4 | 
[V:4] D,_E,G,4^F,2 | 
[V:1] z4d4 | 
[V:2] z2B3cd2 | 
[V:3] G8 | 
[V:4] G,8 | 
[V:1] c4d4 | 
[V:2] e2f2B2b2- | 
[V:3] z8 | 
[V:4] z8 | 
[V:1] G2d2c2d2- | 
[V:2] bagf_e2d2- | 
[V:3] z8 | 
[V:4] z8 | 
[V:1] d2B2A4 | 
[V:2] d_eg4^f2 | 
[V:3] z8 | 
[V:4] z4D,4 | 
[V:1] G8 | 
[V:2] g4d3e | 
[V:3] z4B4 | 
[V:4] E,4G,4 | 
[V:1] z4B4 | 
[V:2] fga2d2e2 | 
[V:3] A4G4 | 
[V:4] F,4G,2E,2 | 
[V:1] A4G4 | 
[V:2] c2d2GABc | 
[V:3] F4B4- | 
[V:4] F,2D,2_E,3D, | 
[V:1] F2B4A2 | 
[V:2] def6 | 
[V:3] B4c4 | 
[V:4] B,,4F,4 | 
[V:1] B2d4c2 | 
[V:2] f3ga2g2 | 
[V:3] d4e4 | 
[V:4] B,,2B,2A,2C2 | 
[V:1] d2f3de2- | 
[V:2] b2f2g2a2 | 
[V:3] f3ed2c2 | 
[V:4] B,6A,2 | 
[V:1] edd4^c2 | 
[V:2] f2b2a4 | 
[V:3] f2g2e4 | 
[V:4] B,2G,2A,4 | 
[V:1] d4z4 | 
[V:2] (3:2:4f4f2e4f2 | 
[V:3] (3:2:4d4d2c4A2 | 
[V:4] (3:2:4D,4D,2A,4A,2 | 
[V:1] (3:2:4d4d2c4A2 | 
[V:2] (3:2:4g4g2e4f2 | 
[V:3] (3:2:4B4G2A4c2 | 
[V:4] (3:2:4G,4B,2A,4A,2 | 
[V:1] (3:2:4B4G2A4c2 | 
[V:2] (3:2:4g4d2f4f2 | 
[V:3] (3B2G2B2(3A2F2A2 | 
[V:4] (3:2:4G,4G,2F,4F,2 | 
[V:1] (3:2:4B4c2d4e2 | 
[V:2] (3:2:5d3ef2d2G4 | 
[V:3] (3:2:4G4F2B4c2 | 
[V:4] (3:2:5G,2B,2A,2G,4E,2 | 
[V:1] (3:2:4f4e2d4c2 | 
[V:2] (3A2B2c2(3A2B2G2 | 
[V:3] (3:2:4d4e2f4e2 | 
[V:4] (3:2:5D,4C,2D,2B,,2C,2 | 
[V:1] (3:2:5B2A3GG4^F2 | 
[V:2] (3:2:5F2f2g2e2d4 | 
[V:3] (3:2:4d4B2c2A4 | 
[V:4] (3:2:4D,4E,2C,2D,4 | 
[V:1] G6F2 | 
[V:2] B2G2d4- | 
[V:3] G6A2 | 
[V:4] G,6D,2 | 
[V:1] G2F2G2A2 | 
[V:2] d2efd2e2 | 
[V:3] B2A2B2c2 | 
[V:4] G,2D,2G,2C,2 | 
[V:1] ^F8- | 
[V:2] d8- | 
[V:3] A2B2A2B2- | 
[V:4] D,8- | 
[V:1] F8 | 
[V:2] d8 | 
[V:3] BABGA4 | 
[V:4] D,8 | 
[V:1] G8 ||  
[V:2] d8 ||  
[V:3] G8 ||  
[V:4] G,8 ||  
[V:1] G8 | 
[V:2] z8 | 
[V:3] z8 | 
[V:4] z8 | 
[V:1] G8 | 
[V:2] z8 | 
[V:3] G8 | 
[V:4] z8 | 
[V:1] B6A2 | 
[V:2] z8 | 
[V:3] G8 | 
[V:4] z8 | 
[V:1] F4G4 | 
[V:2] z8 | 
[V:3] B6A2 | 
[V:4] z8 | 
[V:1] A4B4- | 
[V:2] z8 | 
[V:3] F4G4 | 
[V:4] z8 | 
[V:1] B2A2A4- | 
[V:2] z8 | 
[V:3] A8 | 
[V:4] z8 | 
[V:1] A4G4 | 
[V:2] d8 | 
[V:3] B8 | 
[V:4] z4G,4 | 
[V:1] A8 | 
[V:2] f4f4 | 
[V:3] A4d4- | 
[V:4] F,4D,4 | 
[V:1] z8 | 
[V:2] e8 | 
[V:3] d4^c4 | 
[V:4] E,8 | 
[V:1] z4F4 | 
[V:2] A8 | 
[V:3] d8 | 
[V:4] D,8 | 
[V:1] G4E4 | 
[V:2] z4c4 | 
[V:3] G8 | 
[V:4] E,8 | 
[V:1] F4G4 | 
[V:2] d4e4 | 
[V:3] A4B4 | 
[V:4] D,4G,4 | 
[V:1] A2B4AG | 
[V:2] f4e2c2 | 
[V:3] A2F2G3A | 
[V:4] F,2D,2E,4 | 
[V:1] F4z4 | 
[V:2] d4c4 | 
[V:3] B2A4G2 | 
[V:4] D,4E,4 | 
[V:1] F4G4 | 
[V:2] z4e4 | 
[V:3] A4z2B2 | 
[V:4] D,4G,4 | 
[V:1] A2B4AG | 
[V:2] f4g4 | 
[V:3] c2d4c2 | 
[V:4] F,2D,2E,4 | 
[V:1] F4G4 | 
[V:2] a4g2e2 | 
[V:3] d4G4 | 
[V:4] D,4E,4 | 
[V:1] z2F2G2B2 | 
[V:2] f2d4e2- | 
[V:3] A4G4 | 
[V:4] D,4G,4 | 
[V:1] A2B4AG | 
[V:2] edd4c2 | 
[V:3] z2F2G3A | 
[V:4] F,2D,2E,4 | 
[V:1] F2G4^F2 | 
[V:2] d8- | 
[V:3] B2G2A4 | 
[V:4] D,8 | 
[V:1] !fermata!G8 | 
[V:2] !fermata!d8 | 
[V:3] !fermata!G8 | 
[V:4] !fermata!G,8 | 
[V:1] G8 | 
[V:2] z8 | 
[V:3] z8 | 
[V:4] z8 | 
[V:1] G8 | 
[V:2] z8 | 
[V:3] G8 | 
[V:4] z8 | 
[V:1] B6A2 | 
[V:2] z8 | 
[V:3] G8 | 
[V:4] z8 | 
[V:1] F4G4 | 
[V:2] z8 | 
[V:3] B6A2 | 
[V:4] z8 | 
[V:1] A4B4- | 
[V:2] z8 | 
[V:3] F4G4 | 
[V:4] z8 | 
[V:1] B2A2A4- | 
[V:2] z8 | 
[V:3] A8 | 
[V:4] z8 | 
[V:1] A4G4 | 
[V:2] d8 | 
[V:3] B8 | 
[V:4] z8 | 
[V:1] A8 | 
[V:2] f4e4- | 
[V:3] A8 | 
[V:4] z8 | 
[V:1] z8 | 
[V:2] e4c4 | 
[V:3] c8 | 
[V:4] z8 | 
[V:1] z8 | 
[V:2] d4c4- | 
[V:3] B4c4 | 
[V:4] z8 | 
[V:1] z8 | 
[V:2] c4f4- | 
[V:3] A4F4 | 
[V:4] z8 | 
[V:1] z8 | 
[V:2] f4e4 | 
[V:3] G8 | 
[V:4] z8 | 
[V:1] z8 | 
[V:2] f8 | 
[V:3] z4F4 | 
[V:4] F,8 | 
[V:1] z8 | 
[V:2] z8 | 
[V:3] G4A4 | 
[V:4] E,4F,4 | 
[V:1] z8 | 
[V:2] f8 | 
[V:3] F4B4- | 
[V:4] D,4B,,4 | 
[V:1] z8 | 
[V:2] _e4c4 | 
[V:3] B4A4 | 
[V:4] C,8 | 
[V:1] z8 | 
[V:2] d8 | 
[V:3] B8 | 
[V:4] B,,8 | 
[V:1] A8 | 
[V:2] c4A4- | 
[V:3] A8 | 
[V:4] F,8 | 
[V:1] A4A4 | 
[V:2] A4d4- | 
[V:3] A4A4 | 
[V:4] F,4F,4 | 
[V:1] D4G4 | 
[V:2] d4c4 | 
[V:3] B4G4 | 
[V:4] G,4E,4 | 
[V:1] F4G4 | 
[V:2] d4e4 | 
[V:3] A2B2c4 | 
[V:4] D,4C,4 | 
[V:1] A8- | 
[V:2] c8 | 
[V:3] A6F2 | 
[V:4] F,8 | 
[V:1] A8 | 
[V:2] z8 | 
[V:3] F4f4 | 
[V:4] z8 | 
[V:1] z8 | 
[V:2] c4c4 | 
[V:3] e4f4 | 
[V:4] A,8 | 
[V:1] D4D4 | 
[V:2] d6c2 | 
[V:3] g6f2 | 
[V:4] B,6A,2 | 
[V:1] E4F4 | 
[V:2] B3AA4- | 
[V:3] e2d2d4- | 
[V:4] G,4F,4 | 
[V:1] G8 | 
[V:2] A4G4 | 
[V:3] d4^c4 | 
[V:4] E,8 | 
[V:1] !fermata!F8 | 
[V:2] !fermata!A8 | 
[V:3] !fermata!d8 | 
[V:4] !fermata!D,8 | 
[V:1] G8 | 
[V:2] z8 | 
[V:3] z8 | 
[V:4] z8 | 
[V:1] G8 | 
[V:2] z8 | 
[V:3] G8 | 
[V:4] z8 | 
[V:1] B6A2 | 
[V:2] z8 | 
[V:3] G8 | 
[V:4] z8 | 
[V:1] F4G4 | 
[V:2] z8 | 
[V:3] B6A2 | 
[V:4] z8 | 
[V:1] A4B4- | 
[V:2] z8 | 
[V:3] F4G4 | 
[V:4] z8 | 
[V:1] B2A2A4- | 
[V:2] z8 | 
[V:3] A8 | 
[V:4] z8 | 
[V:1] A4G4 | 
[V:2] z8 | 
[V:3] B8 | 
[V:4] z8 | 
[V:1] A8 | 
[V:2] z4e4- | 
[V:3] A4c4- | 
[V:4] z4A,4- | 
[V:1] z4A4- | 
[V:2] e2e2e4 | 
[V:3] c2c2c4 | 
[V:4] A,2A,2A,4 | 
[V:1] A2A2A4 | 
[V:2] f6ed | 
[V:3] d6c2 | 
[V:4] D,4D,4 | 
[V:1] A4A4 | 
[V:2] c4d4 | 
[V:3] A6B2 | 
[V:4] F,6E,2 | 
[V:1] G4A4- | 
[V:2] e4c4- | 
[V:3] c8 | 
[V:4] C,8 | 
[V:1] A2F2F4- | 
[V:2] c4=B4 | 
[V:3] F8 | 
[V:4] D,8 | 
[V:1] F4E4 | 
[V:2] c8 | 
[V:3] G8 | 
[V:4] C,8 | 
[V:1] F8 | 
[V:2] z4A4 | 
[V:3] F8 | 
[V:4] z4F,4 | 
[V:1] z4F4 | 
[V:2] B4c4 | 
[V:3] z8 | 
[V:4] G,2B,2A,4 | 
[V:1] G2B2A2c2 | 
[V:2] d4A4 | 
[V:3] z4F4 | 
[V:4] G,4z4 | 
[V:1] B2G4^F2 | 
[V:2] z4c4 | 
[V:3] G2B2A4 | 
[V:4] z8 | 
[V:1] G8 | 
[V:2] d4c4 | 
[V:3] G8 | 
[V:4] z4C,4 | 
[V:1] z8 | 
[V:2] f6e2 | 
[V:3] z8 | 
[V:4] D,4C,4 | 
[V:1] z8 | 
[V:2] d4c4 | 
[V:3] z8 | 
[V:4] F,6E,2 | 
[V:1] z8 | 
[V:2] f4e2a2- | 
[V:3] z8 | 
[V:4] D,4C,4 | 
[V:1] z8 | 
[V:2] a2g2e4 | 
[V:3] z8 | 
[V:4] F,2G,2A,4 | 
[V:1] z8 | 
[V:2] f2d2d4- | 
[V:3] z8 | 
[V:4] D,8 | 
[V:1] z8 | 
[V:2] d4^c4 | 
[V:3] z8 | 
[V:4] E,8 | 
[V:1] z4F4 | 
[V:2] d8- | 
[V:3] z8 | 
[V:4] D,8 | 
[V:1] G4F4 | 
[V:2] d8- | 
[V:3] z4F4 | 
[V:4] G,4D,4 | 
[V:1] B6A2 | 
[V:2] d8- | 
[V:3] G4F4 | 
[V:4] G,4D,4 | 
[V:1] G4F4 | 
[V:2] d8 | 
[V:3] B6A2 | 
[V:4] G,4D,4 | 
[V:1] B4A2d2- | 
[V:2] d8- | 
[V:3] G4F4 | 
[V:4] G,4D,4 | 
[V:1] d2c2A4 | 
[V:2] d8- | 
[V:3] B2c2d4 | 
[V:4] G,4F,4 | 
[V:1] B2G2G4- | 
[V:2] d8- | 
[V:3] G8 | 
[V:4] G,8 | 
[V:1] G4^F4 | 
[V:2] d8- | 
[V:3] A8 | 
[V:4] D,8 | 
[V:1] G8 |]  
[V:2] d8 |]  
[V:3] G8 |]  
[V:4] G,8 |]  



